**kern	**kern	**dynam
*part1	*part1	*part1
*staff2	*staff1	*
*I"Piano	*	*
*clefF4	*clefG2	*
*k[f#c#g#d#a#e#]	*k[f#c#g#d#a#e#]	*
=1	=1	=1
*^	*	*
4A#	4FF#)	4c#) 4f#	.
8r	8ryy	8r	.
*v	*v	*	*
=	=	=
(8.F#L 8.c#	(8.f#L 8.a#	p <
16G#K 16c#	16f#K 16b	.
8A#J 8c#	8f#J 8cc#	[
=	=	=
4B 4c#	4f# 4dd# 4ff#	.
8A#) 8c#	8f#) 8cc#	.
=	=	=
(8.B:L 8.d#:	(8.f#:L 8.b: 8.dd#:	.
16A#K 16c#	16f#K 16a# 16cc#	.
8BJ 8d#	8f#J 8b 8dd#	.
=	=	=
4A# 4c#	4f# 4cc#	.
8F#) 8c#	8f#) 8a#	.
=	=	=
4.BB	8.G#L 8.d# 8.f#	.
.	16G#K 16d# 16f#	.
.	8G#J 8d# 8f#	.
=	=	=
4.BB	8.G#L 8.d# 8.f#	.
.	16G#K 16d# 16f#	.
.	8G#J 8d# 8f#	.
=	=	=
4.C#	8.BL 8.e#	.
.	16BK 16e#	.
.	8BJ 8e#	.
=	=	=
*-	*-	*-
!!!system-decoration: {(s1,s2)}
